src/website/src/assets/images/home/angular.svg

<?xml version="1.0" encoding="UTF-8" standalone="no"?>
<svg width="65px" height="70px" viewBox="0 0 65 70" version="1.1" xmlns="http://www.w3.org/2000/svg" xmlns:xlink="http://www.w3.org/1999/xlink">
    <!-- Generator: Sketch 40.3 (33839) - http://www.bohemiancoding.com/sketch -->
    <title>angular</title>
    <desc>Created with Sketch.</desc>
    <defs></defs>
    <g id="Landing-page" stroke="none" stroke-width="1" fill="none" fill-rule="evenodd">
        <g id="landing-page" transform="translate(-1144.000000, -721.000000)">
            <g id="02-panel" transform="translate(96.000000, 528.000000)">
                <g id="NG" transform="translate(936.000000, 168.000000)">
                    <g id="angular" transform="translate(112.000000, 25.000000)">
                        <g id="Layer_1">
                            <g id="Group">
                                <polygon id="Shape" fill="#DD0031" points="32.5 0 32.5 0 32.5 0 0.311170213 11.62 5.22074468 54.705 32.5 70 32.5 70 32.5 70 59.7792553 54.705 64.6888298 11.62"></polygon>
                                <polygon id="Shape" fill="#C3002F" points="32.5 0 32.5 7.77 32.5 7.735 32.5 43.19 32.5 43.19 32.5 70 32.5 70 59.7792553 54.705 64.6888298 11.62"></polygon>
                                <path d="M32.5,7.735 L12.3776596,53.41 L12.3776596,53.41 L19.8803191,53.41 L19.8803191,53.41 L23.9255319,43.19 L41.0053191,43.19 L45.0505319,53.41 L45.0505319,53.41 L52.5531915,53.41 L52.5531915,53.41 L32.5,7.735 L32.5,7.735 L32.5,7.735 L32.5,7.735 L32.5,7.735 L32.5,7.735 Z M38.3776596,36.89 L26.6223404,36.89 L32.5,22.575 L38.3776596,36.89 L38.3776596,36.89 Z" id="Shape" fill="#FFFFFF"></path>
                            </g>
                        </g>
                    </g>
                </g>
            </g>
        </g>
    </g>
</svg>

<svg width="65" height="70" xmlns="http://www.w3.org/2000/svg"><g fill="none" fill-rule="evenodd"><path fill="#DD0031" d="M32.5 0L.311 11.62l4.91 43.085L32.5 70l27.28-15.295 4.909-43.085z"/><path fill="#C3002F" d="M32.5 0v7.77-.035V70l27.28-15.295 4.909-43.085z"/><path d="M32.5 7.735L12.378 53.41h7.502l4.046-10.22h17.08l4.045 10.22h7.502L32.5 7.735zm5.878 29.155H26.622L32.5 22.575l5.878 14.315z" fill="#FFF"/></g></svg>
